!!!OTL: 1467. Der Wildschuetz.
!!!ODT: 1877
!!!ARE: Europa, Mitteleuropa, Deutschland, Hessen, Taunus, Arnoldshain
!!!SCT: E1467
!!!TXL: @@DE
!!!YEM: Copyright 1995, estate of Helmut Schaffrath.
**kern	**text
*ICvox	*
*M3/8	*
*k[f#]	*
*G:	*
!LO:TX:a:t=Etwas rasch.	!
!LO:TX:a:t=Arnoldshain, am Fuße des großen Feldberges im Taunus. 1877.	!
{8d	Ein
=1	=1
8d	Lied-
8e	-chen
8f#	ʒu
=2	=2
16gL	ſin-
16bJ	.
8b}	-gen,
{8dd	das
=3	=3
8cc	iſt
8a	uns
16f#	kei-
16f#	-ne
=4	=4
8g	Schand,
8r}	.
{8d	Vom_Ty-
=5	=5
8d	-ro-
8e	-ler
8f#	Wild-
=6	=6
16gL	-ſchü-
16bJ	.
8b}	-tʒen,
{8dd	er
=7	=7
8cc	iſt
8a	euch
16f#	all-
16f#	-be-
=8	=8
8g	-kannt.
8r}	.
{16g	Al-
16g	-le-
=9	=9
8g	-weil
8ee	ſein
8dd	die
=10	=10
8dd	Weg
8cc	ſo
8cc}	ſchön,
=11	=11
{16a	wo
16a	die
8dd	ſchönen
8cc	.
=12	=12
8cc	Gamſen
8b	.
8b;}	gehn,
=13	=13
{8g	droben
8f#	auf
8e	der
=14	=14
8.d	Höh,
16cc	juch-
8cc;}	-he!
=15	=15
{8d	droben
8e	auf
8f#	der
=16	=16
4g}	Höh.
==	==
!!!AGN: Staende -, Jaeger - Lied, Wilderer
!!!ONB: ESAC (Essen Associative Code) Database: ERK3
!!!AMT: simple triple
!!!AIN: vox
!!!EED: Helmut Schaffrath
!!!EEV: 1.0
!!!GTL: Staendelieder (Berufslieder). 2. Jaegerlieder und Jaegerballaden.
!!!URL-scan: https://rosdok.uni-rostock.de/mcrviewer/recordIdentifier/rosdok_ppn745177999/iview2/phys_0330.iview2?x=-128.77276441889285&y=-102.08956072479486&scale=0.5870222003877487&rotation=0&layout=singlePageLayout
!!!ENC: Anna Maria Matuszewska
!!!EEV: 2024/12/31
*-	*-
